X: 4252
T: Jarnovichi's    Hornpipe
%R: hornpipe, reel
B: Niel Gow & Sons "A Fourth Collection of Strathspey Reels, etc." v.4 p.25 #2
Z: 2022 John Chambers <jc:trillian.mit.edu>
M: 2/4
L: 1/16
K: E
% - - - - - - - - - -
% Voice 1 reformatted for 2 8-bar lines, for compactness and proofreading.
V: 1 staves=2
B |\
(AG)~.F.E (EG).B.e | (cA)F3 GAc | (Bd).e.B (cf)(Fe) | (def).d (BcB).A ||\
(AG)T.F.E EGBe | cAF3 dfa | (gb).e.g (fa).B.d | .e2.[e2B2G2].[e3B2G2] :|
|: f |\
(ed).c.B Bdfa | (ge)Be (ge)(bg) | (af)(ge) (af)(ge) ||\
(df)(eg) .f(BcB) !p!|| (AG)TFE (EG)Be | (cA)F3 dfa | (gb)(eg) (fa).B.d | e2[e2B2G2][e3B2G2] :|
% - - - - - - - - - -
% Voice 2 preserves the staff layout in the book.
V: 2 clef=bass middle=d
z | e4 G4 | A4 a4 | g4 a2^a2 | b4 B4 || e4 G4 |
A4 a4 | g2c'2 a2b2 | e2B2E3 :||: z | b4 a4 | g4 e4 | ^d2e2 d2e2 |
B2c2 ^d4  !p!|| e4 G4 | A4 a4 | g2c'2 a2b2 | e2B2E3 :|


